X:3
T:Goodbye, Yellow Brick Road
L:1/8
M:C
I:linebreak $
K:F
"Gm" G G2 G BB d2 |"C" e8 |"F" A A2 A c2 c2 |"Bb" d6 F2 |$"Eb" G2 G2 BB B2 |"C7" c4 B2 G2 |
"F" FF F2 AF f2- | f4 z2 c2 |$"Gm" bb b2 bd d2 |"C7" d2 e4 G2 |"F" AA A2 cc d2- |"Bb" d6 F2 |$
"Eb" G2 G2 BBBB |"C7" c2 d2 cG E2 |"F" F2 F2 FG E2 | F2 A4 c2 ||$[K:Ab]"Db" d4 F4 |"Eb" G8 |
"Ab" c3 B A2 G2 |"Db" F8 |"Bbm" d4 F4 |"C7" G6 c2 ||$[K:F]"F" f2 ff fc A2 |"A7" e6 ^cc |
"Bb" d2 d^c dB F2 |"F" A6 c2 |$"D7" a2 a2 ab a2 |"Gm" g2 d4 d2 |"C7" e2 e2 ef g2 |"F" f8 |$
"Dm" a2 aa fc A2 |"A" e2 ee e4 |"Bb" ff f2 dB F2 |"Db" _A8 |$ z4 _A2 G2 |"F" F2 FF AA c2 |
"Dm" df f4 d2 |"Bb" f3 f"C7" fg e2 ||$[K:Ab]"Db" d4 F4 |"Eb" G6 z2 |"Ab" c3 B A2 G2 |"Db" F8 |
"Bbm" d4 F4 |"C7" G8 ||1"F" A8 | z8 :|2"F" A8 |]

